X:1
T:Bruyeres
T:Bruyères
T:(Heather) No 5 from Préludes Book 2 
T:Claude Debussy (1862-1918) 
C:Claude Debussy (1862-1918)
%%score { ( 1 4 ) | ( 2 5 ) | ( 3 6 ) }
L:1/8
Q:1/4=66
M:3/4
K:Ab
V:1 treble nm="Grand Piano" snm="Pno."
V:4 treble 
V:2 bass 
V:5 bass 
V:3 bass 
V:6 bass 
V:1
"^Calme - Doucement expressif" z2 z2 z!p! (e | cB/c/ GBFe | !breath!c4)!>(! (cB/c/!>)! | %3
!pp! E4)!>(! (cB/c/!>)! |!pp! [CE]4) z2 |!p! (C>E [DF][CEA][D_GB][FAdf]) | (C>!<(!E FdBf)!<)! | %7
!mf!!>(! (a(3g/f/e/ d/c/B/A/B/A/G/F/!>)! |!p! [CE]4) (.F/.A/.B/.e/) | [CE]6 | %10
!mf! (e'(3d'/c'/b/ c'/b/a/g/a/g/f/e/-) |!>(! (e(3d/c/B/ c/B/A/G/- G/F/E/D/-)!>)! | %12
!p!!>(! ([DE]4!>)!!pp! [DF]2 | [CA]4)!p!!<(! (B/4e/4f/4b/4.e'/4)!<)!!mp!z/4!>(!(3(a/4e/4A/4)!>)! | %14
!p! !tenuto!F-(F/4B/4e/4c/4 G2)!p!!<(! (B/4e/4f/4b/4.e'/4)!<)!!mp!z/4!>(!(3(a/4e/4A/4)!>)! | %15
[M:5/4]!p! F-(F/4B/4e/4c/4 G2)!p! F-(F/4B/4e/4c/4 G2!pp! E2- | %16
[M:3/4] E2-) E- (E/4_D/4E/4F/4[I:staff +1]C/B,/C/D/ | ED E2 F2) | %18
!pp![I:staff -1] (f-f/4b/4e'/4c'/4) (e-e/4a/4d'/4b/4) (d-d/4_g/4c'/4a/4) | %19
 (c-c/4f/4b/4_g/4 B2- B/4A/4_G/4A/4B/4c/4d/4e/4) | %20
!p! (f-f/4b/4e'/4c'/4)!<(! (e-e/4a/4d'/4__b/4) (_g-g/4c'/4f'/4d'/4) | %21
 (b-b/4e'/4a'/4f'/4!<)!!mp!!>(! b2- b/4a/4f/4e/4B/4A/4E/4A/4)!>)! || %22
[K:Bb]!p![Q:1/4=82]"^Un peu animé"!<(! (B2!<)!!mp! f2- f(3e/d/c/ | %23
!>(! B/c/B/F/ E/F/E/C/)[I:staff +1] B,/C/B,/F,/!>)! | %24
!p!!<(![I:staff -1] (B2!<)!!mp! f2-) f(3(d/e/f/ |!>(! b/c'/b/f/ e/f/e/c/!>)!!p! F/)z/(3(d/e/f/ | %26
!<(! b/c'/b/f/ e/f/e/c/ B/c/e/f/) | (b/c'/b/f/ e/f/e/c/!<)!!mf! B/c/B/E/) | %28
 z2 z z/!p! (3(c'/4d'/4=e'/4c'/=e/c/A/) | %29
 z z/!<(![I:staff +1] (3(C/4D/4=E/4[I:staff -1]A/c/d/=e/)!<)!!mp! z/!>(! (C/D/=E/)!>)! | %30
 z2 z z/!p! (3(f'/4g'/4a'/4f'/a/f/d/) | %31
 z z/!<(![I:staff +1] (3(F/4G/4A/4[I:staff -1]d/f/g/a/)!<)!!mp! z2 | %32
!p!!<(! (B2!<)!!mp! f2- f(3e/d/c/ |!>(! B/c/B/F/ E/F/E/C/)[I:staff +1] B,/C/B,/F,/!>)! | %34
!p![I:staff -1] (B2 f2-) f(3(d/e/f/ |!>(! b/c'/b/f/ e/f/e/c/!>)!!pp! F/)z/(3(d/e/f/ | %36
[Q:1/4=78]"^Cédez"!>(! b/c'/[Q:1/4=76]b/f/[Q:1/4=74] e/f/[Q:1/4=72]e/c/)!>)![Q:1/4=70]!pp! B/c/[Q:1/4=68]B/F/ || %37
[K:Ab]!mf![Q:1/4=66]"^au Mouvt."!>(! !tenuto!a(3(g/f/e/) (d/c/B/A/B/A/G/F/!>)! | %38
!p! [CE]4) (.F/.A/.B/.e/) | [CE]6 |!mf! (e'(3!tenuto!d'/c'/b/ c'/b/a/g/ a/g/f/e/-) | %41
 (e(3d/c/B/ c/B/A/G/- G/F/E/D/-) |!>(! ([DE]4 F2!>)! |!p! [DFA]6-) | [DFA]6 | %45
 c'2- c' z z[Q:1/4=64]"^En retenant"!>(! (B/c/!>)! |!p! E4)[Q:1/4=60] z2[Q:1/4=62] | %47
[Q:1/4=58] !tenuto!c2[Q:1/4=56] z!p!!>(! (.B2 .c)!>)![Q:1/4=54] | %48
[Q:1/4=52]!pp! [CE]6[Q:1/4=50][Q:1/4=48] |[Q:1/4=46] !tenuto![CE]6- | [CE]2 z2 z2 |] %51
V:2
 z6 | z6 | z6 | (A,G, F,4-) | (F,G,/F,/ E,4) | ([E,G,]2 [F,B,]A,B,) x | [E,G,]2 [F,B,D]4 | %7
 (E2 =E2 [DF]2) | (B,(3A,/B,/C/ D/C/B,/A,/) !arpeggio!!tenuto![F,B,D]2 | %9
 (B,(3A,/B,/C/!<(![I:staff -1] D/C/D/E/ F/E/F/G/)!<)! |[I:staff +1][K:treble] (!tenuto!G2 F4) | %11
 (G2 F2 [C-c]2) | C[I:staff +1](3B,/A,/G,/[I:staff -1] x2[K:bass] A,2- | A,4 ([D,A,]2 | %14
 [A,,E,]4) ([D,A,]2 |[M:5/4] [A,,E,]4) A,2- A,2 G,2- |[M:3/4] G,2- G, z x2 | x6 | %18
[K:treble]"_una corda" [_GB]6 | [_GB]6 | ([C_GB]2 [DG__B]2 [EBd]2 | [_G_Bce]2 [FABd]2 [EGAB]2) || %22
[K:Bb][K:bass] x6 | x4 x3/2 F,/- | F,4 x2 | ([G,B,EF]4 [F,B,D]2) |[K:treble] ([A,A]2 [G,G]2 [Dd]2 | %27
 [Cc]2 [A,A]2 [G,G]2) |!p!!<(![I:staff -1] G,[I:staff +1](=E/>!<)!!mp!G/)!p! [B,CE]4- | x4 z2 | %30
!p!!<(![I:staff -1] C[I:staff +1](A/>!<)!!mp!c/)!p! [_EFA]4- | x4 z2 |[K:bass] x6 | x4 x3/2 F,/- | %34
 F,4 x2 | ([_G,B,EF]4 [F,B,D]2) | [EF]4- ([EF][_DG] ||[K:Ab] (E2) =E2 [DF]2) | %38
 (B,(3A,/B,/C/ D/C/B,/A,/) !arpeggio!!tenuto![F,B,D]2 | %39
 (B,(3A,/B,/C/!<(![I:staff -1] D/C/D/E/ F/E/F/G/)!<)! |[I:staff +1][K:treble] (!tenuto!G2 F4) | %41
 (G2 F2 [C-c]2) | C[I:staff +1](3B,/A,/G,/[I:staff -1] x2[K:bass] [F,B,]2 | A,6- | A,6 | %45
[K:treble] z2!p! (=E2 F2 | ^F4 [DG]2- | [DG]2 .[DF]2 .[DE]2) |[K:bass]!pp! x4 x!>(! (G,/B,/!>)! | %49
!pp! !tenuto![E,A,]6-) | [E,A,]2 z2 z2 |] %51
V:3
 x6 | x6 | x6 | z6 | z2 z2!p! ([A,,,A,,][B,,,B,,]) | %5
!ped! ([C,,C,]2!ped-up!!ped! [B,,,B,,]!ped-up!!ped![A,,,A,,]!ped-up!!ped![_G,,,_G,,]!ped-up!!ped![D,,,D,,])!ped-up! | %6
!ped! ([C,,C,]2!ped-up!!ped! [B,,,B,,]2!ped-up!!ped! E,,,2)!ped-up! | %7
!ped! x2!ped-up!!ped! x2!ped-up!!ped! x2!ped-up! | %8
 ([A,,E,]4!ped! !arpeggio!!tenuto![D,,A,,D,]2)!ped-up! | [A,,E,]6 | %10
!ped! (G,2!ped-up!!ped! G,4)!ped-up! |!ped! G,2!ped-up!!ped! F,2!ped-up!!ped! z2!ped-up! | %12
 x2 A,/G,/F,/E,/- E,2- |!ped! E,4!ped-up!!ped! z2!ped-up! | %14
!ped! x2!ped-up!!ped! x2!ped-up!!ped! x2!ped-up! | %15
[M:5/4]!ped! x2!ped-up!!ped! x2!ped-up!!ped! F,,2!ped-up!!ped! B,,,2!ped-up!!ped! E,,2- | %16
[M:3/4] E,,2- E,,!ped-up! z z2 | x6 |!ped! x6!ped-up!!ped!!ped-up!!ped!!ped-up! | %19
!ped! x6!ped-up!!ped!!ped-up!!ped!!ped-up! |!ped! x2!ped-up!!ped! x2!ped-up!!ped! x2!ped-up! | %21
!ped! x2!ped-up!!ped! x2!ped-up!!ped! x2!ped-up! || %22
[K:Bb]"_tre corde"!ped! (F,,B,,,-) B,,,2!ped-up!!ped! z2!ped-up! | %23
!ped! x2!ped-up!!ped! x2!ped-up!!ped! x2!ped-up! |!ped! (F,,B,,,-) B,,,2!ped-up!!ped! z2!ped-up! | %25
!ped! x6!ped-up!!ped!!ped-up!!ped!!ped-up! |!ped! x6!ped-up!!ped!!ped-up!!ped!!ped-up! | %27
!ped! x6!ped-up!!ped!!ped-up!!ped!!ped-up! |!ped! [C,,G,,=E,]6- | x4!ped-up! z2 | %30
!ped! [F,,C,A,]6- | x4!ped-up!!mp! z/!>(! (.F,,/.G,,/.A,,/)!>)! | %32
!ped! (F,,B,,,-) B,,,2!ped-up!!ped! z2!ped-up! |!ped! x2!ped-up!!ped! x2!ped-up!!ped! x2!ped-up! | %34
!ped! (F,,B,,,-) B,,,2!ped-up!!ped! z2!ped-up! |!ped! x2!ped-up!!ped! x2!ped-up!!ped! x2!ped-up! | %36
!ped! x2!ped-up!!ped! x2!ped-up!!ped! x2!ped-up! || %37
[K:Ab]!ped! x2!ped-up!!ped! x2!ped-up!!ped! x2!ped-up! | %38
 ([A,,E,]4!ped! !arpeggio!!tenuto![D,,A,,D,]2)!ped-up! | [A,,E,]6 | %40
!ped! (G,2!ped-up!!ped! G,4)!ped-up! |!ped! G,2!ped-up!!ped! F,2!ped-up!!ped! z2!ped-up! | %42
 x2 A,/G,/F,/E,/- E,/D,/C,/B,,/ |!ped!{/[A,,F,]} [D,,-A,,-F,]6 | [D,,A,,]6!ped-up! | %45
 z2!ped! (=E,2!ped-up!!ped! F,2!ped-up! |!ped! ^F,4!ped-up!!ped!!ped-up!!ped! [G,B,]2-!ped-up! | %47
!ped! [G,B,]2!ped-up!!ped! .[F,A,]2!ped-up!!ped! .[E,G,]2)!ped-up! | E,,6 |!ped! E,,6- | %50
 E,,2!ped-up! z2 z2 |] %51
V:4
 x6 | x6 | x6 | D6 | x6 | x6 | x6 | [Ac]2 x4 | x6 | x6 | x6 | x6 | x6 | x4 F2 | C4 F2 | %15
[M:5/4] C4 (C2 =D2 B,2-) |[M:3/4] B,2 B, x3 | z6 | f z e z d z | c z x4 | f z e z _g z | b2 x4 || %22
[K:Bb] [B,DF]6 | x6 | [B,DF]6 | x6 | x6 | x6 | ([B,D]2 [Ac=ea]4-) | x4 x2 | ([_EG]2 [dfad']4-) | %31
 x4 x2 | [B,DF]6 | x6 | [B,DF]6 | x6 | x6 ||[K:Ab] [Ac]6 | x6 | x6 | x6 | x6 | x6 | %43
 z2 z2 z"^doux" e' | c'b/c'/ gb fe' | x6 | x6 | x6 | x6 | x6 | x6 |] %51
V:5
 x6 | x6 | x6 | B,,4 (E,,2 | A,,4) z2 | x6 | x6 | [E,A,C]4 x2 | x6 | x6 | %10
[K:treble][I:staff +1] [A,B,D]6 | [A,B,D]6 | x4[I:staff -1][K:bass] x2 | x6 | x6 | %15
[M:5/4] x4 B,,2- B,,4- |[M:3/4] B,,2- B,, x3 | x6 |[K:treble] (C4 D2) | (E4 D2) | x6 | x6 || %22
[K:Bb][K:bass] [B,,E,]4 F,2 | [G,B,EF]6 | (B,,4 F,2) | x2 x2 x2 |[K:treble] [B,CE]4 [EG]2- | %27
 [EG]2 [B,CE]4 | x6 | x6 | x6 | x6 |[K:bass] z2 z2 (F,2 | [_G,B,EF]6) | (B,,4 F,2) | x6 | %36
 ([_G,B,]4 [=G,B,]2) ||[K:Ab] [E,A,C]4 x2 | x6 | x6 |[K:treble][I:staff +1] [A,B,D]6 | [A,B,D]6 | %42
 x4[I:staff -1][K:bass] x2 | x6 | x6 |[K:treble] x6 |[I:staff +1] [A,B,D]4 x2 | x6 | %48
[I:staff -1][K:bass] E,6 | x6 | x6 |] %51
V:6
 x6 | x6 | x6 | x6 | x6 | x6 | x6 |{/A,,,} A,,,6 | x6 | x6 |{/[B,,,B,,]} [B,,,B,,]6- | %11
 [B,,,B,,]4 x2 | x4 E,/D,/C,/B,,/ | A,,4 x2 | x6 |[M:5/4] x10 |[M:3/4] x6 | x6 | x6 | x6 | A,6- | %21
 A,6 ||[K:Bb] x6 | x6 | x6 | x6 | x6 | x6 | x6 | x6 | x6 | x4 x2 | x6 | x6 | x6 | x6 | x6 || %37
[K:Ab]{/A,,,} A,,,6 | x6 | x6 |{/[B,,,B,,]} [B,,,B,,]6- | [B,,,B,,]4 x2 | x6 | x6 | x6 | %45
 x2 [A,D]4 | z2 E,,4- | E,,6 | %48
 (3(B,,,/4A,,,/4G,,,/4A,,,3/2) (3(B,,,/4A,,,/4G,,,/4A,,,3/2-) (A,,,G,,,/B,,,/ | A,,,6-) | %50
 A,,,2 x4 |] %51

